icon-themes/colibre_svg/sc/res/sidebar/CellBorder_All_18x18.svg

<svg viewBox="0 0 18 18" xmlns="http://www.w3.org/2000/svg"><g fill="#808080"><path d="m0 0v18h18v-18zm2 2h6v6h-6zm8 0h6v6h-6zm-8 8h6v6h-6zm8 0h6v6h-6z"/><path d="m2 2v14h14v-14z" opacity=".4"/></g></svg>

<?xml version="1.0" encoding="UTF-8" standalone="no"?>
<svg
   xmlns:dc="http://purl.org/dc/elements/1.1/"
   xmlns:cc="http://creativecommons.org/ns#"
   xmlns:rdf="http://www.w3.org/1999/02/22-rdf-syntax-ns#"
   xmlns:svg="http://www.w3.org/2000/svg"
   xmlns="http://www.w3.org/2000/svg"
   xmlns:sodipodi="http://sodipodi.sourceforge.net/DTD/sodipodi-0.dtd"
   xmlns:inkscape="http://www.inkscape.org/namespaces/inkscape"
   viewBox="0 0 18 18"
   version="1.1"
   id="svg10"
   sodipodi:docname="CellBorder_All_18x18.svg"
   inkscape:version="0.92.3 (2405546, 2018-03-11)">
  <metadata
     id="metadata16">
    <rdf:RDF>
      <cc:Work
         rdf:about="">
        <dc:format>image/svg+xml</dc:format>
        <dc:type
           rdf:resource="http://purl.org/dc/dcmitype/StillImage" />
      </cc:Work>
    </rdf:RDF>
  </metadata>
  <defs
     id="defs14" />
  <sodipodi:namedview
     pagecolor="#ffffff"
     bordercolor="#666666"
     borderopacity="1"
     objecttolerance="10"
     gridtolerance="10"
     guidetolerance="10"
     inkscape:pageopacity="0"
     inkscape:pageshadow="2"
     inkscape:window-width="2560"
     inkscape:window-height="1319"
     id="namedview12"
     showgrid="true"
     inkscape:zoom="26.222222"
     inkscape:cx="1.3514099"
     inkscape:cy="-1.232919"
     inkscape:window-x="0"
     inkscape:window-y="30"
     inkscape:window-maximized="1"
     inkscape:current-layer="svg10">
    <inkscape:grid
       type="xygrid"
       id="grid823" />
  </sodipodi:namedview>
  <path
     d="M 0 0 L 0 18 L 18 18 L 18 0 L 0 0 z M 2 2 L 8 2 L 8 8 L 2 8 L 2 2 z M 10 2 L 16 2 L 16 8 L 10 8 L 10 2 z M 2 10 L 8 10 L 8 16 L 2 16 L 2 10 z M 10 10 L 16 10 L 16 16 L 10 16 L 10 10 z "
     id="path2"
     style="fill:#808080;fill-opacity:1" />
  <path
     d="M 2 2 L 2 16 L 16 16 L 16 2 L 2 2 z "
     id="path4"
     style="fill:#808080;fill-opacity:1;opacity:0.4" />
</svg>
